X: 38677
T: Stranger At The Gate
R: reel
M: 4/4
K: Dmajor
|:B2 EF GBEG|FDAF DFED|ABBd BA A2|FGFD A3G|
BGEF GABG|A2 de fdec|d2 AF DFED|BFAF EBBA:|
|:(3Bcd ed fgge|(3gfe fd efdB|ABdg fedf|d2 AF DFED|
[1B2 EG GEGB|GAAd effg|d2 AF DFED|BFAF EBBA:|
[2BGEF GABG|A2 de fdec|d2 AF DFED|BFAF EBBA:|

